src/img/datastax-docs-logo-light-bg.svg

<svg width="287" height="40" viewBox="0 0 287 40" fill="none" xmlns="http://www.w3.org/2000/svg">
    <path d="M0 0.000110626H192.307V40H0V0.000110626Z" fill="white" />
    <g clip-path="url(#clip0_1385_805)">
        <g clip-path="url(#clip1_1385_805)">
            <g clip-path="url(#clip2_1385_805)">
                <path
                    d="M112.424 15.1438V12.524H99.9726L96.5913 15.1438V18.7413L99.9726 21.3611H110.824V25.0539H97.2638V27.6711H110.051L113.433 25.0539V21.3611L110.051 18.7413H99.1998V15.1438H112.424Z"
                    fill="#090909" />
                <path
                    d="M47.2492 12.524H44.8738L36.1616 27.6711H39.1742L46.0669 15.6912L52.9516 27.6711H55.9614L47.2492 12.524Z"
                    fill="#090909" />
                <path
                    d="M73.1471 12.524H56.3057V15.1438H63.4235V27.6711H66.0293V15.1438H73.1471V12.524Z"
                    fill="#090909" />
                <path
                    d="M134.458 12.524H117.619V15.1438H124.734V27.6711H127.343V15.1438H134.458V12.524Z"
                    fill="#090909" />
                <path
                    d="M29.4802 12.524H16.02V27.6711H29.4802L32.8615 25.0512V15.1438L29.4802 12.524ZM18.6285 15.1438H30.253V25.0539H18.6285V15.1438Z"
                    fill="#090909" />
                <path
                    d="M165.261 20.0975L163.753 17.4777V17.4804L160.904 12.524H157.891L162.249 20.0975L157.891 27.6711H160.904L163.753 22.7173L165.261 20.0975Z"
                    fill="#090909" />
                <path
                    d="M169.545 20.0975L171.053 17.4777V17.4804L173.906 12.524H176.915L172.561 20.0975L176.915 27.6711H173.906L171.053 22.7173L169.545 20.0975Z"
                    fill="#090909" />
                <path
                    d="M82.2034 12.524H84.5788L93.291 27.6711H90.2784L83.3857 15.6912L76.501 27.6711H73.4912L82.2034 12.524Z"
                    fill="#090909" />
                <path
                    d="M143.514 12.524H145.89L154.602 27.6711H151.592L144.697 15.6912L137.815 27.6711H134.802L143.514 12.524Z"
                    fill="#090909" />
            </g>
        </g>
    </g>
    <path d="M193.307 1H285.153V38.9999H193.307V1Z" fill="#090909" stroke="white" stroke-width="2" />
    <path
        d="M208.673 27.7476V26.4553H212.347C213.258 26.4553 214.051 26.3076 214.728 26.0123C215.418 25.7169 215.996 25.3169 216.464 24.8123C216.931 24.2953 217.282 23.7046 217.516 23.04C217.75 22.3753 217.867 21.6676 217.867 20.9169C217.867 20.1415 217.744 19.4215 217.498 18.7569C217.264 18.0923 216.913 17.5077 216.445 17.003C215.978 16.4984 215.399 16.1107 214.71 15.84C214.033 15.5692 213.245 15.4338 212.347 15.4338H208.673V14.1415H212.199C213.405 14.1415 214.451 14.3261 215.338 14.6954C216.224 15.0646 216.962 15.5692 217.553 16.2092C218.144 16.8369 218.581 17.5446 218.864 18.3323C219.147 19.12 219.288 19.92 219.288 20.7323V21.083C219.288 21.883 219.147 22.6769 218.864 23.4646C218.581 24.2523 218.15 24.9723 217.571 25.6246C216.993 26.2646 216.255 26.7815 215.356 27.1753C214.47 27.5569 213.418 27.7476 212.199 27.7476H208.673ZM207.639 27.7476V14.1415H209.042V27.7476H207.639Z"
        fill="white" />
    <path
        d="M231.545 27.9876C230.376 27.9876 229.361 27.7784 228.499 27.3599C227.638 26.9415 226.924 26.3876 226.358 25.6984C225.792 25.0092 225.367 24.2584 225.084 23.4461C224.801 22.6338 224.659 21.84 224.659 21.0646V20.7323C224.659 19.9077 224.801 19.0892 225.084 18.2769C225.379 17.4523 225.816 16.7077 226.395 16.043C226.973 15.3784 227.693 14.8492 228.555 14.4554C229.416 14.0492 230.413 13.8461 231.545 13.8461C232.69 13.8461 233.687 14.0492 234.536 14.4554C235.398 14.8492 236.118 15.3784 236.696 16.043C237.275 16.7077 237.705 17.4523 237.988 18.2769C238.284 19.0892 238.431 19.9077 238.431 20.7323V21.083C238.431 21.8584 238.29 22.6523 238.007 23.4646C237.736 24.2646 237.312 25.0092 236.733 25.6984C236.167 26.3876 235.453 26.9415 234.592 27.3599C233.73 27.7784 232.715 27.9876 231.545 27.9876ZM231.545 26.6953C232.407 26.6953 233.176 26.5415 233.853 26.2338C234.53 25.9138 235.102 25.483 235.57 24.9415C236.038 24.3876 236.395 23.7661 236.641 23.0769C236.887 22.3876 237.01 21.6676 237.01 20.9169C237.01 20.1292 236.887 19.3907 236.641 18.7015C236.395 18.0123 236.032 17.403 235.552 16.8738C235.084 16.3323 234.512 15.9077 233.835 15.6C233.158 15.2923 232.395 15.1384 231.545 15.1384C230.708 15.1384 229.952 15.2923 229.275 15.6C228.598 15.9077 228.019 16.3323 227.539 16.8738C227.072 17.403 226.708 18.0123 226.45 18.7015C226.204 19.3907 226.081 20.1292 226.081 20.9169C226.081 21.6676 226.204 22.3876 226.45 23.0769C226.696 23.7661 227.053 24.3876 227.521 24.9415C227.988 25.483 228.561 25.9138 229.238 26.2338C229.927 26.5415 230.696 26.6953 231.545 26.6953Z"
        fill="white" />
    <path
        d="M250.712 27.9876C249.506 27.9876 248.472 27.7784 247.61 27.3599C246.761 26.9292 246.066 26.3692 245.524 25.6799C244.995 24.9907 244.607 24.2461 244.361 23.4461C244.115 22.6338 243.992 21.8461 243.992 21.083V20.7323C243.992 19.9077 244.115 19.0892 244.361 18.2769C244.62 17.4523 245.013 16.7077 245.543 16.043C246.084 15.3784 246.773 14.8492 247.61 14.4554C248.447 14.0492 249.438 13.8461 250.583 13.8461C251.74 13.8461 252.736 14.0492 253.573 14.4554C254.423 14.8615 255.1 15.4338 255.604 16.1723C256.109 16.8984 256.416 17.76 256.527 18.7569H255.106C255.007 17.9569 254.749 17.2923 254.33 16.763C253.912 16.2215 253.376 15.8154 252.724 15.5446C252.084 15.2738 251.37 15.1384 250.583 15.1384C249.733 15.1384 248.983 15.2923 248.33 15.6C247.69 15.8954 247.155 16.3138 246.724 16.8554C246.293 17.3846 245.967 18 245.746 18.7015C245.524 19.3907 245.413 20.1292 245.413 20.9169C245.413 21.6676 245.518 22.3876 245.727 23.0769C245.949 23.7661 246.281 24.3876 246.724 24.9415C247.167 25.483 247.721 25.9138 248.386 26.2338C249.05 26.5415 249.826 26.6953 250.712 26.6953C251.943 26.6953 252.976 26.3876 253.813 25.7723C254.65 25.1446 255.167 24.2461 255.364 23.0769H256.786C256.65 24 256.33 24.8369 255.826 25.5876C255.321 26.3261 254.638 26.9107 253.776 27.3415C252.927 27.7723 251.906 27.9876 250.712 27.9876Z"
        fill="white" />
    <path
        d="M267.709 27.9876C266.577 27.9876 265.623 27.8092 264.848 27.4523C264.072 27.083 263.482 26.5784 263.075 25.9384C262.682 25.2861 262.485 24.5538 262.485 23.7415H263.888C263.888 24.2584 264.011 24.7446 264.257 25.2C264.515 25.643 264.922 26.0061 265.475 26.2892C266.042 26.5599 266.786 26.6953 267.709 26.6953C268.558 26.6953 269.26 26.5723 269.814 26.3261C270.38 26.0799 270.798 25.7476 271.069 25.3292C271.352 24.9107 271.494 24.443 271.494 23.9261C271.494 23.2738 271.235 22.7323 270.718 22.3015C270.214 21.8584 269.451 21.5938 268.429 21.5076L266.878 21.36C265.722 21.2615 264.798 20.9046 264.109 20.2892C263.432 19.6615 263.094 18.8369 263.094 17.8153C263.094 17.04 263.278 16.3569 263.648 15.7661C264.017 15.1754 264.54 14.7077 265.217 14.363C265.906 14.0184 266.731 13.8461 267.691 13.8461C268.663 13.8461 269.494 14.0246 270.183 14.3815C270.885 14.7261 271.42 15.2061 271.789 15.8215C272.158 16.4369 272.343 17.1507 272.343 17.963H270.94C270.94 17.4707 270.829 17.0092 270.608 16.5784C270.386 16.1477 270.035 15.803 269.555 15.5446C269.075 15.2738 268.454 15.1384 267.691 15.1384C266.965 15.1384 266.362 15.2615 265.882 15.5077C265.414 15.7538 265.063 16.08 264.829 16.4861C264.608 16.8923 264.497 17.3354 264.497 17.8153C264.497 18.4184 264.712 18.9292 265.143 19.3477C265.574 19.7661 266.195 20.0061 267.008 20.0677L268.558 20.2153C269.469 20.2892 270.245 20.4923 270.885 20.8246C271.537 21.1446 272.035 21.5692 272.38 22.0984C272.725 22.6153 272.897 23.2246 272.897 23.9261C272.897 24.7138 272.682 25.4153 272.251 26.0307C271.832 26.6461 271.235 27.1261 270.46 27.4707C269.685 27.8153 268.768 27.9876 267.709 27.9876Z"
        fill="white" />
    <defs>
        <clipPath id="clip0_1385_805">
            <rect width="160.895" height="15.1471" fill="white" transform="translate(16.02 12.524)" />
        </clipPath>
        <clipPath id="clip1_1385_805">
            <rect width="160.934" height="15.1471" fill="white" transform="translate(16.02 12.524)" />
        </clipPath>
        <clipPath id="clip2_1385_805">
            <rect width="160.895" height="15.1471" fill="white" transform="translate(16.02 12.524)" />
        </clipPath>
    </defs>
</svg>

<svg xmlns="http://www.w3.org/2000/svg" width="287" height="40" fill="none" viewBox="0 0 287 40">
    <path fill="#fff" d="M0 0h192.307v40H0V0Z" />
    <g clip-path="url(#a)">
        <g clip-path="url(#b)">
            <g clip-path="url(#c)">
                <path fill="#090909"
                    d="M112.424 15.144v-2.62H99.972l-3.38 2.62v3.597l3.38 2.62h10.852v3.693h-13.56v2.617h12.787l3.382-2.617V21.36l-3.382-2.62H99.2v-3.597h13.224Zm-65.175-2.62h-2.375L36.16 27.671h3.013l6.893-11.98 6.884 11.98h3.01l-8.71-15.147Zm25.898 0H56.305v2.62h7.118V27.67h2.606V15.144h7.118v-2.62Zm61.311 0h-16.839v2.62h7.115V27.67h2.609V15.144h7.115v-2.62Zm-104.978 0H16.02v15.147h13.46l3.381-2.62v-9.907l-3.38-2.62Zm-10.852 2.62h11.625v9.91H18.628v-9.91Zm146.633 4.954-1.507-2.62v.002l-2.85-4.956h-3.013l4.358 7.574-4.358 7.573h3.013l2.85-4.954 1.507-2.62Zm4.284 0 1.508-2.62v.002l2.853-4.956h3.009l-4.354 7.574 4.354 7.573h-3.009l-2.853-4.954-1.508-2.62Zm-87.341-7.574h2.375l8.712 15.147H90.28l-6.893-11.98-6.885 11.98h-3.01l8.713-15.147Zm61.311 0h2.375l8.712 15.147h-3.01l-6.895-11.98-6.882 11.98h-3.013l8.713-15.147Z" />
            </g>
        </g>
    </g>
    <path fill="#090909" stroke="#fff" stroke-width="2" d="M193.307 1h91.846v38h-91.846V1Z" />
    <path fill="#fff"
        d="M208.673 27.748v-1.293h3.674c.911 0 1.704-.147 2.381-.443a5.03 5.03 0 0 0 1.736-1.2 5.187 5.187 0 0 0 1.052-1.772 6.347 6.347 0 0 0 .351-2.123c0-.776-.123-1.495-.369-2.16a4.983 4.983 0 0 0-1.053-1.754 4.633 4.633 0 0 0-1.735-1.163c-.677-.27-1.465-.406-2.363-.406h-3.674v-1.292h3.526c1.206 0 2.252.184 3.139.553.886.37 1.624.874 2.215 1.514a6.06 6.06 0 0 1 1.311 2.123 7.05 7.05 0 0 1 .424 2.4v.351c0 .8-.141 1.594-.424 2.382a6.59 6.59 0 0 1-1.293 2.16c-.578.64-1.317 1.157-2.215 1.55-.886.382-1.938.573-3.157.573h-3.526Zm-1.034 0V14.14h1.403v13.607h-1.403Zm23.906.24c-1.169 0-2.184-.21-3.046-.628a6.273 6.273 0 0 1-2.141-1.662 7.308 7.308 0 0 1-1.274-2.252 7.215 7.215 0 0 1-.425-2.381v-.333c0-.824.142-1.643.425-2.455a6.924 6.924 0 0 1 1.311-2.234 6.27 6.27 0 0 1 2.16-1.588c.861-.406 1.858-.609 2.99-.609 1.145 0 2.142.203 2.991.61a6.27 6.27 0 0 1 2.16 1.587 6.664 6.664 0 0 1 1.292 2.234 7.12 7.12 0 0 1 .443 2.455v.351c0 .775-.141 1.57-.424 2.382a6.913 6.913 0 0 1-1.274 2.233 6.267 6.267 0 0 1-2.142 1.662c-.861.418-1.876.628-3.046.628Zm0-1.293c.862 0 1.631-.154 2.308-.461a5.142 5.142 0 0 0 1.717-1.293 5.979 5.979 0 0 0 1.071-1.864c.246-.69.369-1.41.369-2.16 0-.788-.123-1.526-.369-2.216a5.388 5.388 0 0 0-1.09-1.827 4.933 4.933 0 0 0-1.716-1.274c-.677-.308-1.44-.462-2.29-.462-.837 0-1.594.154-2.27.462a5.123 5.123 0 0 0-1.736 1.274 5.8 5.8 0 0 0-1.089 1.828 6.542 6.542 0 0 0-.369 2.215c0 .75.123 1.47.369 2.16.246.69.603 1.31 1.071 1.864.467.542 1.04.973 1.717 1.293.689.307 1.458.461 2.307.461Zm19.167 1.293c-1.206 0-2.24-.21-3.102-.628-.849-.43-1.544-.99-2.086-1.68a7.054 7.054 0 0 1-1.163-2.234 8.136 8.136 0 0 1-.369-2.363v-.35c0-.825.123-1.644.369-2.456a6.833 6.833 0 0 1 1.182-2.234c.541-.665 1.23-1.194 2.067-1.588.837-.406 1.828-.609 2.973-.609 1.157 0 2.153.203 2.99.61.85.405 1.527.978 2.031 1.716.505.726.812 1.588.923 2.585h-1.421c-.099-.8-.357-1.465-.776-1.994a3.86 3.86 0 0 0-1.606-1.218c-.64-.271-1.354-.407-2.141-.407-.85 0-1.6.154-2.253.462a4.353 4.353 0 0 0-1.606 1.255 5.513 5.513 0 0 0-.978 1.846 7.185 7.185 0 0 0-.333 2.216c0 .75.105 1.47.314 2.16.222.69.554 1.31.997 1.864.443.542.997.973 1.662 1.293.664.307 1.44.461 2.326.461 1.231 0 2.264-.307 3.101-.923.837-.627 1.354-1.526 1.551-2.695h1.422a6.018 6.018 0 0 1-.96 2.51c-.505.74-1.188 1.324-2.05 1.755-.849.43-1.87.646-3.064.646Zm16.997 0c-1.132 0-2.086-.179-2.861-.536-.776-.369-1.366-.874-1.773-1.514-.393-.652-.59-1.384-.59-2.197h1.403c0 .517.123 1.004.369 1.459.258.443.665.806 1.218 1.09.567.27 1.311.405 2.234.405.849 0 1.551-.123 2.105-.369.566-.246.984-.578 1.255-.997a2.45 2.45 0 0 0 .425-1.403c0-.652-.259-1.194-.776-1.624-.504-.444-1.267-.708-2.289-.794l-1.551-.148c-1.156-.098-2.08-.455-2.769-1.07-.677-.628-1.015-1.453-1.015-2.475 0-.775.184-1.458.554-2.049.369-.59.892-1.058 1.569-1.403.689-.345 1.514-.517 2.474-.517.972 0 1.803.179 2.492.536.702.344 1.237.824 1.606 1.44.369.615.554 1.329.554 2.141h-1.403a2.99 2.99 0 0 0-.332-1.385c-.222-.43-.573-.775-1.053-1.033-.48-.271-1.101-.407-1.864-.407-.726 0-1.329.123-1.809.37-.468.246-.819.572-1.053.978a2.74 2.74 0 0 0-.332 1.33c0 .602.215 1.113.646 1.532.431.418 1.052.658 1.865.72l1.55.147c.911.074 1.687.277 2.327.61.652.32 1.15.744 1.495 1.273.345.517.517 1.127.517 1.828 0 .788-.215 1.49-.646 2.105-.419.615-1.016 1.095-1.791 1.44-.775.344-1.692.517-2.751.517Z" />
    <defs>
        <clipPath id="a">
            <path fill="#fff" d="M16.02 12.524h160.895v15.147H16.02z" />
        </clipPath>
        <clipPath id="b">
            <path fill="#fff" d="M16.02 12.524h160.934v15.147H16.02z" />
        </clipPath>
        <clipPath id="c">
            <path fill="#fff" d="M16.02 12.524h160.895v15.147H16.02z" />
        </clipPath>
    </defs>
</svg>
